src/icons/kl.svg

<svg viewBox="0 0 24 24" xmlns="http://www.w3.org/2000/svg">
  <path
    d="M12 1.703C11.75 1.701 11.5 1.813 11.271 2.041C8.19193 5.11558 5.11659 8.19392 2.04501 11.276C1.90101 11.42 1.81601 11.623 1.70401 11.798V12.208C1.86401 12.431 1.99801 12.682 2.18901 12.874C5.1619 15.8588 8.14057 18.8378 11.125 21.811C11.318 22.003 11.568 22.136 11.791 22.297H12.201C12.406 22.155 12.637 22.041 12.81 21.868C15.856 18.828 18.9 15.786 21.943 12.742C22.413 12.272 22.415 11.737 21.949 11.27L12.73 2.052C12.5 1.822 12.251 1.706 12 1.703ZM10.938 6.25L12.324 7.082C13.026 7.504 13.727 7.927 14.433 8.344C14.4467 8.35208 14.4601 8.36075 14.473 8.37L14.489 8.383L14.506 8.396C14.567 8.452 14.595 8.518 14.594 8.62C14.5893 9.88433 14.5893 11.1487 14.594 12.413C14.5949 12.4445 14.5925 12.476 14.587 12.507C14.572 12.577 14.533 12.611 14.445 12.617C14.4304 12.618 14.4157 12.6184 14.401 12.618L14.265 12.615C13.942 12.61 13.617 12.615 13.267 12.615V10.072L13.271 9.404C13.271 9.258 13.232 9.174 13.101 9.097C12.208 8.569 11.321 8.03 10.431 7.497C10.38 7.467 10.33 7.432 10.258 7.385L10.259 7.383L10.258 7.382L10.938 6.25ZM11.3 9.64C11.368 9.637 11.419 9.682 11.473 9.778C11.558 9.925 11.647 10.071 11.737 10.217L11.752 10.242C11.848 10.397 11.946 10.552 12.044 10.712L10.129 11.888C9.79201 12.096 9.45601 12.306 9.11501 12.506C9.00201 12.572 8.96101 12.649 8.96101 12.783C8.97101 13.76 8.97101 14.737 8.97501 15.715V15.968H7.66401C7.66001 15.914 7.65001 15.856 7.65001 15.798C7.64501 14.548 7.64401 13.296 7.63501 12.046C7.63501 11.906 7.68001 11.826 7.79901 11.753C8.91955 11.0727 10.0372 10.3877 11.152 9.698L11.168 9.689C11.1785 9.68268 11.1892 9.67667 11.2 9.671L11.216 9.664C11.2268 9.65903 11.2378 9.65469 11.249 9.651L11.261 9.647C11.2702 9.64449 11.2795 9.64281 11.289 9.642L11.299 9.64H11.3ZM16.977 12.765L17.291 13.305L17.637 13.9V13.901C17.479 13.995 17.339 14.078 17.199 14.159L14.102 15.957C13.996 16.019 13.913 16.029 13.802 15.967L12.909 15.472L11.385 14.629L10.49 14.136C10.455 14.116 10.422 14.092 10.361 14.051H10.362L10.499 13.8L10.994 12.898L12.44 13.693C12.882 13.937 13.326 14.177 13.763 14.428C13.884 14.497 13.975 14.499 14.097 14.428C14.991 13.902 15.889 13.384 16.786 12.865C16.843 12.831 16.904 12.803 16.977 12.765Z"
    fill="#29B6F6"
  />
</svg>

<svg viewBox="0 0 24 24" xmlns="http://www.w3.org/2000/svg">
  <path
    d="M12 1.703c-.25-.002-.5.11-.729.338a5355.467 5355.467 0 0 0-9.226 9.235c-.144.144-.229.347-.341.522v.41c.16.223.294.474.485.666a3259.51 3259.51 0 0 0 8.936 8.937c.193.192.443.325.666.486h.41c.205-.142.436-.256.609-.429 3.046-3.04 6.09-6.082 9.133-9.126.47-.47.472-1.005.006-1.472L12.73 2.052c-.23-.23-.48-.346-.731-.349zM10.938 6.25l1.386.832c.702.422 1.403.845 2.109 1.262a.544.544 0 0 1 .04.026l.016.013.017.013c.061.056.089.122.088.224a510.281 510.281 0 0 0 0 3.793.463.463 0 0 1-.007.094c-.015.07-.054.104-.142.11a.464.464 0 0 1-.044.001l-.136-.003c-.323-.005-.648 0-.998 0v-2.543l.004-.668c0-.146-.039-.23-.17-.307-.893-.528-1.78-1.067-2.67-1.6-.051-.03-.101-.065-.173-.112l.001-.002-.001-.001zm.362 3.39c.068-.003.119.042.173.138.085.147.174.293.264.439l.015.025c.096.155.194.31.292.47l-1.915 1.176c-.337.208-.673.418-1.014.618-.113.066-.154.143-.154.277.01.977.01 1.954.014 2.932v.253H7.664c-.004-.054-.014-.112-.014-.17-.005-1.25-.006-2.502-.015-3.752 0-.14.045-.22.164-.293a467.13 467.13 0 0 0 3.353-2.055l.016-.009a.606.606 0 0 1 .032-.018l.016-.007a.308.308 0 0 1 .033-.013l.012-.004a.157.157 0 0 1 .028-.005l.01-.002zm5.677 3.125.314.54.346.595v.001c-.158.094-.298.177-.438.258l-3.097 1.798c-.106.062-.189.072-.3.01l-.893-.495-1.524-.843-.895-.493c-.035-.02-.068-.044-.129-.085h.001v-.001l.137-.25.495-.902 1.446.795c.442.244.886.484 1.323.735.121.069.212.071.334 0 .894-.526 1.792-1.044 2.689-1.563.057-.034.118-.062.191-.1z"
    style="fill: #29b6f6; stroke-width: 0.041008"
  />
</svg>
